polaris-icons/icons/new-icons/FraudProtectUnprotectedMajor.svg

<svg width="20" height="20" viewBox="0 0 20 20" fill="none" xmlns="http://www.w3.org/2000/svg">
<path d="M12.5058 3.97252C12.1423 3.72983 11.7891 3.47142 11.4472 3.19794L11.0932 2.91473C10.4541 2.40342 9.54592 2.40342 8.90679 2.91473L8.58988 3.16826C7.60347 3.95738 6.52283 4.62089 5.37281 5.14354L4.52596 5.5284C3.90734 5.80954 3.4829 6.4396 3.51511 7.15602C3.59897 9.02081 4.02287 10.5783 4.61234 11.8659L5.75768 10.7206C5.35672 9.69632 5.07674 8.49286 5.0136 7.08863C5.01058 7.0215 5.05113 6.93736 5.14657 6.89399L5.99342 6.50913C7.25656 5.93508 8.44349 5.20631 9.52692 4.33956L9.84383 4.08603C9.93513 4.01299 10.0649 4.01299 10.1562 4.08603L10.5102 4.36924C10.8079 4.60739 11.1134 4.83513 11.4262 5.05212L12.5058 3.97252Z" fill="#4A4A4A"/>
<path fill-rule="evenodd" clip-rule="evenodd" d="M4.55314 14.0464C4.26542 14.3397 4.26713 14.8107 4.5583 15.1019C4.85119 15.3947 5.32606 15.3947 5.61896 15.1019L6.25934 14.4615C7.41034 15.8233 8.62308 16.6091 9.2485 16.9579C9.71777 17.2197 10.2821 17.2196 10.7514 16.9581C12.1033 16.2046 16.2048 13.4087 16.485 7.17491C16.517 6.46228 16.097 5.83475 15.4834 5.55153L15.2685 5.45235L15.872 4.8488C16.1649 4.55591 16.1649 4.08104 15.872 3.78814C15.5808 3.49696 15.1098 3.49526 14.8165 3.78304C14.8148 3.78479 14.8131 3.78652 14.8113 3.78826L4.55829 14.0413C4.55658 14.043 4.55486 14.0447 4.55314 14.0464ZM9.97913 15.6479C9.43926 15.3468 8.34783 14.6429 7.32407 13.3967L14.1381 6.5827L14.8548 6.91347C14.9494 6.95715 14.9895 7.04087 14.9865 7.10755C14.7398 12.5967 11.1587 15.0138 10.0211 15.6479C10.0113 15.6533 10.0044 15.6542 10.0001 15.6542C9.99573 15.6542 9.98888 15.6534 9.97913 15.6479Z" fill="#4A4A4A"/>
</svg>

<svg viewBox="0 0 20 20" xmlns="http://www.w3.org/2000/svg"><path d="M12.506 3.973a15.26 15.26 0 0 1-1.059-.775l-.354-.283a1.75 1.75 0 0 0-2.186 0l-.317.253a15.25 15.25 0 0 1-3.217 1.976l-.847.384a1.71 1.71 0 0 0-1.01 1.628c.083 1.865.507 3.422 1.096 4.71l1.146-1.145c-.401-1.025-.681-2.228-.744-3.632-.003-.068.037-.152.133-.195l.846-.385a16.75 16.75 0 0 0 3.534-2.17l.317-.253a.25.25 0 0 1 .312 0l.354.283c.298.238.603.466.916.683l1.08-1.08Z" fill="#5C5F62"/><path fill-rule="evenodd" d="M4.553 14.046a.75.75 0 0 0 1.066 1.056l.64-.64a11.092 11.092 0 0 0 2.99 2.496c.469.262 1.033.262 1.502 0 1.352-.753 5.454-3.55 5.734-9.783a1.71 1.71 0 0 0-1.002-1.623l-.215-.1.604-.603a.75.75 0 1 0-1.06-1.06l-10.254 10.252a2.489 2.489 0 0 1-.005.005Zm5.426 1.602a9.544 9.544 0 0 1-2.655-2.251l6.814-6.814.717.33c.094.044.134.128.131.195-.246 5.489-3.827 7.906-4.965 8.54a.043.043 0 0 1-.02.006c-.005 0-.012 0-.022-.006Z" fill="#5C5F62"/></svg>
